documentation/public/assets/images/05-link-do.svg

<svg width="102" height="16" viewBox="0 0 102 16" fill="none" xmlns="http://www.w3.org/2000/svg">
<path d="M1.50426 13V2.81818H3.34872V11.4538H7.8331V13H1.50426ZM12.7351 13.1491C11.9695 13.1491 11.3082 12.9901 10.7514 12.6719C10.1979 12.3504 9.77202 11.8963 9.47372 11.3097C9.17543 10.7197 9.02628 10.0253 9.02628 9.22656C9.02628 8.44105 9.17543 7.75166 9.47372 7.15838C9.77533 6.56179 10.1963 6.09777 10.7365 5.76633C11.2768 5.43158 11.9115 5.2642 12.6406 5.2642C13.1113 5.2642 13.5554 5.34044 13.973 5.4929C14.3939 5.64205 14.7652 5.87405 15.0866 6.18892C15.4115 6.50379 15.6667 6.90483 15.8523 7.39205C16.0379 7.87595 16.1307 8.45265 16.1307 9.12216V9.67401H9.87145V8.46094H14.4055C14.4022 8.11624 14.3277 7.80966 14.1818 7.54119C14.036 7.26941 13.8321 7.05563 13.5703 6.89986C13.3118 6.74408 13.0102 6.66619 12.6655 6.66619C12.2976 6.66619 11.9744 6.75568 11.696 6.93466C11.4176 7.11032 11.2005 7.34233 11.0447 7.63068C10.8923 7.91572 10.8144 8.22893 10.8111 8.57031V9.62926C10.8111 10.0734 10.8923 10.4545 11.0547 10.7727C11.2171 11.0876 11.4441 11.3295 11.7358 11.4986C12.0275 11.6643 12.3688 11.7472 12.7599 11.7472C13.0218 11.7472 13.2588 11.7107 13.4709 11.6378C13.683 11.5616 13.867 11.4505 14.0227 11.3047C14.1785 11.1589 14.2962 10.9782 14.3757 10.7628L16.0561 10.9517C15.95 11.3958 15.7479 11.7836 15.4496 12.1151C15.1546 12.4432 14.7768 12.6984 14.3161 12.8807C13.8554 13.0597 13.3284 13.1491 12.7351 13.1491ZM19.8507 13.1541C19.3668 13.1541 18.9309 13.0679 18.5431 12.8956C18.1587 12.7199 17.8538 12.4614 17.6284 12.12C17.4063 11.7786 17.2953 11.3577 17.2953 10.8572C17.2953 10.4264 17.3748 10.0701 17.5339 9.78835C17.693 9.50663 17.9101 9.28125 18.1852 9.11222C18.4603 8.94318 18.7702 8.81558 19.1149 8.7294C19.4629 8.63991 19.8225 8.57528 20.1937 8.53551C20.6412 8.48911 21.0041 8.44768 21.2825 8.41122C21.5609 8.37145 21.7631 8.31179 21.889 8.23224C22.0183 8.14938 22.0829 8.02178 22.0829 7.84943V7.8196C22.0829 7.44508 21.9719 7.15507 21.7498 6.94957C21.5278 6.74408 21.2079 6.64134 20.7903 6.64134C20.3495 6.64134 19.9998 6.73745 19.7413 6.92969C19.4861 7.12192 19.3137 7.34896 19.2243 7.6108L17.5439 7.37216C17.6764 6.90814 17.8952 6.52036 18.2001 6.20881C18.505 5.89394 18.8779 5.65862 19.3187 5.50284C19.7595 5.34375 20.2467 5.2642 20.7804 5.2642C21.1483 5.2642 21.5145 5.30729 21.8791 5.39347C22.2437 5.47964 22.5768 5.62216 22.8784 5.82102C23.18 6.01657 23.4219 6.28338 23.6042 6.62145C23.7898 6.95952 23.8826 7.3821 23.8826 7.8892V13H22.1525V11.951H22.0929C21.9835 12.1631 21.8294 12.362 21.6305 12.5476C21.435 12.7299 21.188 12.8774 20.8897 12.9901C20.5948 13.0994 20.2484 13.1541 19.8507 13.1541ZM20.318 11.8317C20.6793 11.8317 20.9925 11.7604 21.2576 11.6179C21.5228 11.4721 21.7266 11.2798 21.8691 11.0412C22.015 10.8026 22.0879 10.5424 22.0879 10.2607V9.3608C22.0315 9.4072 21.9354 9.45028 21.7995 9.49006C21.667 9.52983 21.5178 9.56463 21.3521 9.59446C21.1864 9.62429 21.0223 9.6508 20.8599 9.67401C20.6975 9.69721 20.5566 9.71709 20.4373 9.73366C20.1689 9.77012 19.9286 9.82978 19.7164 9.91264C19.5043 9.9955 19.3369 10.1115 19.2143 10.2607C19.0917 10.4065 19.0304 10.5954 19.0304 10.8274C19.0304 11.1589 19.1513 11.4091 19.3933 11.5781C19.6352 11.7472 19.9435 11.8317 20.318 11.8317ZM25.6923 13V5.36364H27.4373V6.63636H27.5169C27.6561 6.19555 27.8947 5.85582 28.2328 5.61719C28.5742 5.37524 28.9636 5.25426 29.4011 5.25426C29.5005 5.25426 29.6116 5.25923 29.7342 5.26918C29.8601 5.2758 29.9645 5.2874 30.0474 5.30398V6.95952C29.9712 6.933 29.8502 6.9098 29.6845 6.88991C29.5221 6.86671 29.3646 6.85511 29.2122 6.85511C28.8841 6.85511 28.5891 6.92637 28.3272 7.06889C28.0687 7.2081 27.8649 7.40199 27.7157 7.65057C27.5666 7.89915 27.492 8.18584 27.492 8.51065V13H25.6923ZM33.0428 8.52557V13H31.2431V5.36364H32.9632V6.66122H33.0527C33.2284 6.23366 33.5085 5.89394 33.8929 5.64205C34.2807 5.39015 34.7596 5.2642 35.3297 5.2642C35.8567 5.2642 36.3158 5.37689 36.7069 5.60227C37.1013 5.82765 37.4062 6.15412 37.6216 6.58168C37.8404 7.00923 37.9481 7.52794 37.9448 8.13778V13H36.1451V8.41619C36.1451 7.90578 36.0125 7.50639 35.7473 7.21804C35.4855 6.92969 35.1226 6.78551 34.6586 6.78551C34.3437 6.78551 34.0636 6.85511 33.8184 6.99432C33.5764 7.13021 33.3858 7.32741 33.2466 7.58594C33.1107 7.84446 33.0428 8.15767 33.0428 8.52557ZM43.247 13V5.36364H44.9672V6.66122H45.0566C45.2157 6.22372 45.4792 5.88234 45.8471 5.63707C46.215 5.38849 46.6542 5.2642 47.1646 5.2642C47.6816 5.2642 48.1175 5.39015 48.4721 5.64205C48.8301 5.89062 49.082 6.23035 49.2278 6.66122H49.3074C49.4764 6.23698 49.7614 5.89891 50.1625 5.64702C50.5668 5.39181 51.0458 5.2642 51.5993 5.2642C52.3019 5.2642 52.8753 5.48627 53.3194 5.9304C53.7636 6.37453 53.9856 7.02249 53.9856 7.87429V13H52.1809V8.1527C52.1809 7.67874 52.055 7.33239 51.8031 7.11364C51.5512 6.89157 51.243 6.78054 50.8784 6.78054C50.4442 6.78054 50.1045 6.91643 49.8592 7.18821C49.6172 7.45668 49.4963 7.80634 49.4963 8.23722V13H47.7314V8.07812C47.7314 7.68371 47.612 7.36884 47.3734 7.13352C47.1381 6.8982 46.8298 6.78054 46.4487 6.78054C46.1902 6.78054 45.9548 6.84683 45.7427 6.9794C45.5306 7.10866 45.3616 7.29261 45.2356 7.53125C45.1097 7.76657 45.0467 8.04167 45.0467 8.35653V13H43.247ZM59.1424 13.1491C58.3967 13.1491 57.7504 12.9851 57.2035 12.657C56.6566 12.3288 56.2324 11.8698 55.9308 11.2798C55.6325 10.6899 55.4833 10.0005 55.4833 9.21165C55.4833 8.42282 55.6325 7.73177 55.9308 7.13849C56.2324 6.54522 56.6566 6.08452 57.2035 5.75639C57.7504 5.42827 58.3967 5.2642 59.1424 5.2642C59.8881 5.2642 60.5344 5.42827 61.0813 5.75639C61.6282 6.08452 62.0508 6.54522 62.3491 7.13849C62.6507 7.73177 62.8015 8.42282 62.8015 9.21165C62.8015 10.0005 62.6507 10.6899 62.3491 11.2798C62.0508 11.8698 61.6282 12.3288 61.0813 12.657C60.5344 12.9851 59.8881 13.1491 59.1424 13.1491ZM59.1523 11.7074C59.5567 11.7074 59.8948 11.5964 60.1665 11.3743C60.4383 11.1489 60.6405 10.8473 60.7731 10.4695C60.909 10.0916 60.9769 9.67069 60.9769 9.20668C60.9769 8.73935 60.909 8.31676 60.7731 7.93892C60.6405 7.55777 60.4383 7.2545 60.1665 7.02912C59.8948 6.80374 59.5567 6.69105 59.1523 6.69105C58.738 6.69105 58.3933 6.80374 58.1183 7.02912C57.8465 7.2545 57.6426 7.55777 57.5067 7.93892C57.3742 8.31676 57.3079 8.73935 57.3079 9.20668C57.3079 9.67069 57.3742 10.0916 57.5067 10.4695C57.6426 10.8473 57.8465 11.1489 58.1183 11.3743C58.3933 11.5964 58.738 11.7074 59.1523 11.7074ZM64.329 13V5.36364H66.074V6.63636H66.1536C66.2928 6.19555 66.5314 5.85582 66.8695 5.61719C67.2109 5.37524 67.6003 5.25426 68.0378 5.25426C68.1373 5.25426 68.2483 5.25923 68.3709 5.26918C68.4969 5.2758 68.6013 5.2874 68.6841 5.30398V6.95952C68.6079 6.933 68.4869 6.9098 68.3212 6.88991C68.1588 6.86671 68.0014 6.85511 67.8489 6.85511C67.5208 6.85511 67.2258 6.92637 66.964 7.06889C66.7054 7.2081 66.5016 7.40199 66.3525 7.65057C66.2033 7.89915 66.1287 8.18584 66.1287 8.51065V13H64.329ZM72.946 13.1491C72.1804 13.1491 71.5192 12.9901 70.9624 12.6719C70.4089 12.3504 69.983 11.8963 69.6847 11.3097C69.3864 10.7197 69.2372 10.0253 69.2372 9.22656C69.2372 8.44105 69.3864 7.75166 69.6847 7.15838C69.9863 6.56179 70.4072 6.09777 70.9474 5.76633C71.4877 5.43158 72.1224 5.2642 72.8516 5.2642C73.3222 5.2642 73.7663 5.34044 74.1839 5.4929C74.6049 5.64205 74.9761 5.87405 75.2976 6.18892C75.6224 6.50379 75.8776 6.90483 76.0632 7.39205C76.2488 7.87595 76.3416 8.45265 76.3416 9.12216V9.67401H70.0824V8.46094H74.6165C74.6132 8.11624 74.5386 7.80966 74.3928 7.54119C74.2469 7.26941 74.0431 7.05563 73.7812 6.89986C73.5227 6.74408 73.2211 6.66619 72.8764 6.66619C72.5085 6.66619 72.1854 6.75568 71.907 6.93466C71.6286 7.11032 71.4115 7.34233 71.2557 7.63068C71.1032 7.91572 71.0253 8.22893 71.022 8.57031V9.62926C71.022 10.0734 71.1032 10.4545 71.2656 10.7727C71.428 11.0876 71.6551 11.3295 71.9467 11.4986C72.2384 11.6643 72.5798 11.7472 72.9709 11.7472C73.2327 11.7472 73.4697 11.7107 73.6818 11.6378C73.8939 11.5616 74.0779 11.4505 74.2337 11.3047C74.3894 11.1589 74.5071 10.9782 74.5866 10.7628L76.267 10.9517C76.161 11.3958 75.9588 11.7836 75.6605 12.1151C75.3655 12.4432 74.9877 12.6984 74.527 12.8807C74.0663 13.0597 73.5393 13.1491 72.946 13.1491Z" fill="#0F67F5"/>
<path fill-rule="evenodd" clip-rule="evenodd" d="M87.542 2.04199H92.8337V3.29199H88.792V12.7087H98.2087V8.66699H99.4587V13.9587H87.542V2.04199ZM97.3248 3.29199H96.167V2.04199H99.4587V5.33366H98.2087V4.17588L93.9423 8.44227L93.0584 7.55838L97.3248 3.29199Z" fill="#0F67F5"/>
</svg>

<svg width="102" height="16" fill="none" xmlns="http://www.w3.org/2000/svg"><path d="M1.5 13V2.82h1.85v8.63h4.48V13H1.5Zm11.24.15c-.77 0-1.43-.16-1.99-.48a3.23 3.23 0 0 1-1.28-1.36 4.56 4.56 0 0 1-.44-2.08c0-.79.15-1.48.44-2.07a3.38 3.38 0 0 1 3.17-1.9c.47 0 .92.08 1.33.23a3.17 3.17 0 0 1 1.88 1.9c.19.49.28 1.06.28 1.73v.55H9.87v-1.2h4.54c0-.35-.08-.66-.23-.93a1.63 1.63 0 0 0-.61-.64 1.72 1.72 0 0 0-.9-.23 1.8 1.8 0 0 0-1.63.96 2 2 0 0 0-.23.94v1.06c0 .44.08.82.24 1.14a1.8 1.8 0 0 0 1.71.98c.26 0 .5-.04.71-.11a1.55 1.55 0 0 0 .91-.88l1.68.2a2.7 2.7 0 0 1-1.74 1.92c-.46.18-1 .27-1.58.27Zm7.11 0c-.48 0-.92-.08-1.3-.25a2.13 2.13 0 0 1-.92-.78 2.27 2.27 0 0 1-.33-1.26c0-.43.07-.79.23-1.07s.38-.5.66-.68c.27-.17.58-.3.92-.38.35-.09.71-.15 1.08-.2l1.1-.12c.27-.04.47-.1.6-.18.13-.08.2-.2.2-.38v-.03c0-.37-.12-.66-.34-.87-.22-.2-.54-.3-.96-.3-.44 0-.79.09-1.05.28-.25.2-.43.42-.52.68l-1.68-.24a2.68 2.68 0 0 1 1.78-1.87 4.76 4.76 0 0 1 2.56-.1c.36.08.7.22 1 .42.3.2.54.46.72.8.19.34.28.76.28 1.27V13h-1.73v-1.05h-.06A2.2 2.2 0 0 1 20.9 13c-.3.1-.64.16-1.04.16Zm.47-1.32a2 2 0 0 0 .94-.21c.26-.15.47-.34.6-.58.16-.24.23-.5.23-.78v-.9a.85.85 0 0 1-.3.13 13.8 13.8 0 0 1-1.36.24c-.26.04-.5.1-.71.18-.22.09-.38.2-.5.35a.85.85 0 0 0-.19.57c0 .33.12.58.36.75.25.17.55.25.93.25ZM25.69 13V5.36h1.75v1.28h.08a1.9 1.9 0 0 1 1.88-1.39 4.15 4.15 0 0 1 .65.05v1.66a3.34 3.34 0 0 0-.84-.1c-.33 0-.62.07-.88.2a1.56 1.56 0 0 0-.84 1.45V13h-1.8Zm7.35-4.47V13h-1.8V5.36h1.72v1.3h.1c.17-.43.45-.77.83-1.02.4-.25.87-.38 1.44-.38.53 0 .99.12 1.38.34.4.23.7.55.91.98.22.43.33.95.32 1.56V13h-1.8V8.42c0-.51-.13-.91-.4-1.2a1.4 1.4 0 0 0-1.08-.43c-.32 0-.6.07-.84.2a1.5 1.5 0 0 0-.57.6 2 2 0 0 0-.2.94ZM43.24 13V5.36h1.73v1.3h.09c.16-.44.42-.78.79-1.02.37-.25.8-.38 1.31-.38.52 0 .96.13 1.31.38a2 2 0 0 1 .76 1.02h.08c.17-.42.45-.76.85-1.01.4-.26.89-.39 1.44-.39.7 0 1.28.23 1.72.67.44.44.67 1.1.67 1.94V13h-1.8V8.15c0-.47-.13-.82-.39-1.04a1.35 1.35 0 0 0-.92-.33c-.44 0-.78.14-1.02.4a1.5 1.5 0 0 0-.36 1.06V13h-1.77V8.08c0-.4-.12-.71-.36-.95a1.25 1.25 0 0 0-.92-.35c-.26 0-.5.07-.7.2a1.3 1.3 0 0 0-.51.55c-.13.24-.2.51-.2.83V13h-1.8Zm15.9.15a3.7 3.7 0 0 1-1.94-.5 3.34 3.34 0 0 1-1.27-1.37 4.53 4.53 0 0 1-.45-2.07c0-.79.15-1.48.45-2.07.3-.6.73-1.06 1.27-1.38a3.7 3.7 0 0 1 1.94-.5c.75 0 1.4.17 1.94.5.55.32.97.79 1.27 1.38.3.6.45 1.28.45 2.07 0 .79-.15 1.48-.45 2.07-.3.59-.72 1.05-1.27 1.38a3.7 3.7 0 0 1-1.94.49Zm.01-1.44c.4 0 .74-.11 1.02-.34a2 2 0 0 0 .6-.9c.14-.38.2-.8.2-1.26 0-.47-.06-.9-.2-1.27a2 2 0 0 0-.6-.91 1.54 1.54 0 0 0-1.02-.34c-.41 0-.76.11-1.03.34a2 2 0 0 0-.61.9c-.14.39-.2.8-.2 1.28 0 .46.06.88.2 1.26.13.38.34.68.6.9.28.23.63.34 1.04.34ZM64.33 13V5.36h1.74v1.28h.08a1.9 1.9 0 0 1 1.89-1.39 4.15 4.15 0 0 1 .64.05v1.66a3.34 3.34 0 0 0-.84-.1 2 2 0 0 0-.88.2 1.56 1.56 0 0 0-.83 1.45V13h-1.8Zm8.62.15c-.77 0-1.43-.16-1.99-.48a3.23 3.23 0 0 1-1.28-1.36 4.56 4.56 0 0 1-.44-2.08c0-.79.15-1.48.44-2.07a3.38 3.38 0 0 1 3.17-1.9c.47 0 .92.08 1.33.23a3.17 3.17 0 0 1 1.88 1.9c.19.49.28 1.06.28 1.73v.55h-6.26v-1.2h4.54c0-.35-.08-.66-.23-.93a1.63 1.63 0 0 0-.6-.64 1.72 1.72 0 0 0-.91-.23 1.8 1.8 0 0 0-1.62.96 2 2 0 0 0-.24.94v1.06c0 .44.08.82.25 1.14.16.32.39.56.68.73a2.25 2.25 0 0 0 1.73.14 1.55 1.55 0 0 0 .91-.88l1.68.2a2.69 2.69 0 0 1-1.74 1.92c-.46.18-1 .27-1.58.27Z" fill="#0F67F5"/><path fill-rule="evenodd" clip-rule="evenodd" d="M87.54 2.04h5.3V3.3h-4.05v9.42h9.42V8.67h1.25v5.29H87.54V2.04Zm9.78 1.25h-1.15V2.04h3.29v3.3H98.2V4.17l-4.27 4.26-.88-.88 4.26-4.27Z" fill="#0F67F5"/></svg>
